cssgg/thermometer.svg

<svg
  width="24"
  height="24"
  viewBox="0 0 24 24"
  fill="none"
  xmlns="http://www.w3.org/2000/svg"
>
  <path
    d="M16.9498 5.63615C17.3403 5.24563 17.9735 5.24563 18.364 5.63615C18.7545 6.02668 18.7545 6.65984 18.364 7.05037L11.2929 14.1214C10.9024 14.512 10.2693 14.512 9.87873 14.1214C9.48821 13.7309 9.48821 13.0977 9.87873 12.7072L16.9498 5.63615Z"
    fill="currentColor"
  />
  <path
    fill-rule="evenodd"
    clip-rule="evenodd"
    d="M7.82813 17.5862C9.7695 18.8725 12.4109 18.6603 14.1214 16.9499L21.1924 9.8788C23.1451 7.92617 23.1451 4.76035 21.1924 2.80773C19.2398 0.855106 16.074 0.855106 14.1214 2.80773L7.0503 9.8788C5.33984 11.5893 5.12771 14.2307 6.41392 16.172L2.80766 19.7783C2.41714 20.1688 2.41714 20.802 2.80766 21.1925C3.19819 21.583 3.83135 21.583 4.22188 21.1925L7.82813 17.5862ZM12.7072 15.5356L19.7782 8.46458C20.9498 7.29301 20.9498 5.39351 19.7782 4.22194C18.6067 3.05037 16.7072 3.05037 15.5356 4.22194L8.46452 11.293C7.29294 12.4646 7.29294 14.3641 8.46452 15.5356C9.63609 16.7072 11.5356 16.7072 12.7072 15.5356Z"
    fill="currentColor"
  />
</svg>

<svg viewBox="0 0 24 24" xmlns="http://www.w3.org/2000/svg"><g><path d="M16.94 5.63c.39-.4 1.02-.4 1.41 0 .39.39.39 1.02 0 1.41l-7.08 7.07c-.4.39-1.03.39-1.42 0 -.4-.4-.4-1.03 0-1.42l7.07-7.08Z"/><path fill-rule="evenodd" d="M7.82 17.58c1.94 1.28 4.58 1.07 6.29-.64l7.071-7.08c1.95-1.96 1.95-5.12 0-7.08 -1.96-1.96-5.12-1.96-7.071 0L7.03 9.85c-1.72 1.71-1.93 4.35-.64 6.29l-3.61 3.6c-.4.39-.4 1.02 0 1.41 .39.39 1.02.39 1.41 0l3.6-3.61Zm4.87-2.06l7.071-7.08c1.17-1.18 1.17-3.08 0-4.25 -1.18-1.18-3.08-1.18-4.25 0l-7.08 7.07c-1.18 1.17-1.18 3.07 0 4.24 1.17 1.17 3.07 1.17 4.24 0Z"/></g></svg>
